X: 28807
T: My Mind Will Never Be Easy
R: slip jig
M: 9/8
K: Amixolydian
|:d2 B BAB ABd|BBB BAB dBf|edB BAB ABd|eee efd e2 f:|
def gag fed|BBB cec d2 A|def gag fed|eee efd e2 f|
def gag fed|BBB cec d2 f|edB BAB ABd|eee efd e2 f||

